X: 16
I: linebreak $
T: Petit Riens
P: Play three times through
N: Drone: G/D
K: C major
M: 6/8
L: 1/8
P: A
"^Piva"GAB GAB | c2B A2G | d2d d2d | e2d/c/ B3 | GAB GAB | c2B A2G | 
dd/d/d dcB | A3 G3 :| 
P: B
c2c c2c | c2c B3 | d2d d2d | e2e d3 | 
c2c c2c | c2c B3 | d2d d2d | e2e d3 | c2c c2c | c2c B3 | d2d d2d | e2e d3 || g2g f2a | g2^f/e/ d3 | g2g f2a | g2^f/e/ d3 | 
g2g f2a | g2^f/e/ d3 || d2d d2c | BA2 G3 | d2d d2c | BA2 G3 | 
d2d d2c | BA2 G3 || c2c c2c | c2c B3 | d2d d2d | e2e d3 | g2g f2a | g2^f/e/ d3 | d2d d2c | BA2 G3 |] 

